X: 5
T: Zelda
R: jig
M: 6/8
L: 1/8
K: Amin
"Am" e2 A e2 A |"Dm" fed "Am" e2 A |"C" edc "Em" B2 d |"G" dcB "Am" c2 A |
"Am" e2 A e2 A |"Dm" fed "Am" e2 A |"C" edc "Em" B2 d | "G" dcB "Am" A2 z ||
"Dm" ABc "Am" E2 E |"Dm" ABc "G7" F2 F |"Dm" ABc "Em" B2 B |"G" dcB "Am" c2 A |
"Dm" ABc "Am" E2 E |"Dm" ABc "G7" F2 F |"Dm" ABc "Em" B2 B |"G"dcB "Am" A3 ||
